!!!!SEGMENT: pl-kk--kk-i-1--042_anonim--deo-gratias.krn
!!!cenid: 15xx:755
!!!COM: Anonim
!!!COM-rismid: pe30004985
!!!CDT:
!!!CNT:
!!!OTL: Deo gratias
!!!PDT:
!!!AGN:
!!!SMS-siglum: PL-Kk
!!!SMS-shelfmark: Kk.I.1
!!!SMS-shelfwork: 042 W
!!!SMS-variant:
!!!SMS-altvar:
!!!NIFC-rismid: 300257996
!!!URL-scan: http://repozytorium.nifc.pl/skany/pl-kk-nut--i-1
!!!ONB-nifc: UWAGA: Cantus (s. 140r, skan 0142), Altus (brak), Tenor (s. 115r, skan 0505), Bassus (s. 127v, skan 0690).
!!!key: e:phr
**kern	**kern	**kern	**kern	**text
*part4	*part3	*part2	*part1	*part1
*staff4	*staff3	*staff2	*staff1	*staff1
*I"BASSVS	*I"TENOR	*I"ALTVS	*I"CANTVS	*
*I'B	*I'T	*I'A	*I'S	*
*Ibass	*Itenor	*Ialto	*Isoprn	*
*ICvox	*ICvox	*ICvox	*ICvox	*
*clefF3	*clefC4	*clefC4	*clefC3	*
*k[]	*k[]	*k[]	*k[]	*
*e:phr	*e:phr	*e:phr	*e:phr	*
*M2/1	*M2/1	*M2/1	*M2/1	*
*met(C|)	*met(C|)	*met(C|)	*met(C|)	*
=1-	=1-	=1-	=1-	=1-
*	*	*	*2\right	*
!!LO:TX:t=P:problem:Problem z tym utworem jest taki, że to są głosy do siebie nie pasujące. Tenor i bas to powtórzenie utworu nr 1 z tego rękopisu, czyli Deo Gratias Fons bonitatis. Cantus do tego nie pasuje, został tu przepisany przez pomyłkę. Ale resztę głosów do tego Cantus (ATB) znajdziemy w Kk I.6/43i, a cały czterogłoswy zapis w Kk I.7/2n. W porozumieniu z NIFC robimy tutaj tylko Cantus, a pomijamy niepasujące tutaj TiB (oznaczone jako altvar do utworu 01)
!!LO:TX:t=P:problem:all\middle or right:global
0ryy	0ryy	0ryy	2.e\	De-
.	.	.	4d\	-o
.	.	.	4e\	.
.	.	.	4f\	.
.	.	.	1g\	.
=2-	=2-	=2-	=2-	=2-
0ryy	0ryy	0ryy	.	.
.	.	.	4f\	.
.	.	.	4e\	.
.	.	.	2f\	.
.	.	.	1e\	.
=3-	=3-	=3-	=3-	=3-
0ryy	0ryy	0ryy	.	.
.	.	.	2d\	.
.	.	.	1.e	.
=4-	=4-	=4-	=4-	=4-
0ryy	0ryy	0ryy	.	.
.	.	.	2f\	gra-
.	.	.	1d	.
=5-	=5-	=5-	=5-	=5-
0ryy	0ryy	0ryy	2c\	.
.	.	.	1e	.
.	.	.	2f\	.
=6-	=6-	=6-	=6-	=6-
0ryy	0ryy	0ryy	2g\	.
.	.	.	4f\	.
.	.	.	4e\	.
.	.	.	1d	.
=7-	=7-	=7-	=7-	=7-
0ryy	0ryy	0ryy	2c\	.
.	.	.	2.e\	.
.	.	.	4d\	.
.	.	.	1d\	.
=8-	=8-	=8-	=8-	=8-
0ryy	0ryy	0ryy	.	.
.	.	.	2c\	.
.	.	.	2d\	.
.	.	.	2f\	.
=9-	=9-	=9-	=9-	=9-
0ryy	0ryy	0ryy	2e\	-ti-
.	.	.	2f\	-aſ
.	.	.	2d\	.
.	.	.	2e\	.
=10-	=10-	=10-	=10-	=10-
0ryy	0ryy	0ryy	1f	.
.	.	.	1el	.
==	==	==	==	==
*-	*-	*-	*-	*-
!!!system-decoration: [(s1,s2,s3,s4)]
!!!RDF**kern: > = above
!!!RDF**kern: < = below
!!!RDF**kern: l = terminal long
!!!ENC: Katarzyna Serwa
!!!END: 2022-03-13
!!!AIN: 1 alto 1 bass 1 soprn 1 tenor
!!!ENC: Mateusz Solarz
!!!END: 2022-03-07
